icons/telephone.svg

<svg fill="none" height="26" viewBox="0 0 26 26" width="26" xmlns="http://www.w3.org/2000/svg"><path d="m17.2 14.8c-1.2 1.2-1.2 2.4-2.4 2.4s-2.4-1.2-3.6-2.4-2.4-2.4-2.4-3.6 1.2-1.2 2.4-2.4-2.4-4.8-3.6-4.8-3.6 3.6-3.6 3.6c0 2.4 2.472 7.2 4.8 9.6s7.2 4.8 9.6 4.8c0 0 3.6-2.4 3.6-3.6s-3.6-4.8-4.8-3.6z" fill="#ed1c24"/></svg>

<svg width="26" height="26" viewBox="0 0 26 26" fill="none" xmlns="http://www.w3.org/2000/svg">
<path d="M17.2 14.8C16 16 16 17.2 14.8 17.2C13.6 17.2 12.4 16 11.2 14.8C10 13.6 8.8 12.4 8.8 11.2C8.8 10 10 10 11.2 8.8C12.4 7.6 8.8 4 7.6 4C6.4 4 4 7.6 4 7.6C4 10 6.472 14.8 8.8 17.2C11.128 19.6 16 22 18.4 22C18.4 22 22 19.6 22 18.4C22 17.2 18.4 13.6 17.2 14.8Z" fill="#ED1C24"/>
</svg>
